X:1
T:Nocturne
T:6me NOCTURNE.
T:Gabriel Fauré, Op.63.
C:Gabriel Faure
%%score { ( 1 2 5 ) | ( 3 4 6 ) }
L:1/8
Q:1/4=60
M:3/2
K:Db
V:1 treble nm="PIANO."
V:2 treble 
V:5 treble 
V:3 bass 
V:4 bass 
V:6 bass 
V:1
!p!"^Adagio.""^dolce" (3:2:1(d3[Q:1/4=64] (3x[Q:1/4=60] A x | %1
[Q:1/4=64] (3:2:1F3 (3x[Q:1/4=60] =G x[Q:1/4=64] (3:2:1A3 (3x[Q:1/4=60] F x[Q:1/4=64] (3:2:1E3 (3x[Q:1/4=60] F x | %2
[Q:1/4=64] (3:2:1G3 (3x[Q:1/4=60] E x[Q:1/4=64] (3:2:1D3 (3x[Q:1/4=60] E x[Q:1/4=64] (3:2:1F3[Q:1/4=62] (3x[Q:1/4=60] A,) x | %3
[Q:1/4=62] (A,4[Q:1/4=62][Q:1/4=64] D4-)[Q:1/4=62][Q:1/4=64] D2[Q:1/4=60] z2[Q:1/4=52][Q:1/4=64] | %4
!p![Q:1/4=62] (3:2:1(A3[Q:1/4=64] (3x[Q:1/4=60] B x[Q:1/4=64] (3:2:1G3 (3x[Q:1/4=60] F x[Q:1/4=64] _C2- (3C[Q:1/4=56]D[Q:1/4=52]E | %5
[Q:1/4=62] A4[Q:1/4=64][Q:1/4=62][Q:1/4=64] E4-)[Q:1/4=62][Q:1/4=64] E2 z2[Q:1/4=60][Q:1/4=52] | %6
[Q:1/4=62] (3:2:1(A3[Q:1/4=64] (3x[Q:1/4=60] B x[Q:1/4=64] (3:2:1G3 (3x[Q:1/4=60] F x[Q:1/4=64] _C2- (3C[Q:1/4=54]D[Q:1/4=52]E | %7
!mp![Q:1/4=62]!>(! _c4[Q:1/4=64][Q:1/4=62][Q:1/4=60] __B2-)!>)!!p![Q:1/4=52] B z[Q:1/4=40][Q:1/4=62]"_cresc." (3:2:1^c3[Q:1/4=64] (3x[Q:1/4=60] =A x | %8
[Q:1/4=62] (3:2:1^F3[Q:1/4=64] (3x[Q:1/4=60] ^G x[Q:1/4=64] (3:2:1=A3 (3x[Q:1/4=60] F x[Q:1/4=64] (3:2:1=E3 (3x[Q:1/4=60] ^F x | %9
!mp![Q:1/4=62]!>(! (3:2:1=G3[Q:1/4=64] (3x[Q:1/4=60] =E x[Q:1/4=64] (3:2:1_D3 (3x[Q:1/4=60] _E!>)! x!p![Q:1/4=64] (3:2:1F3[Q:1/4=60] (3x[Q:1/4=52] A, x | %10
!p![Q:1/4=62] (A,4[Q:1/4=62][Q:1/4=65] D4-)[Q:1/4=62][Q:1/4=61] D2 z2[Q:1/4=52][Q:1/4=40][Q:1/4=64] | %11
"_dolce"!p![Q:1/4=62] (3:2:1([dd']3 (3x[Q:1/4=61] [__e__e'] x[Q:1/4=65] (3:2:1[__B__b]3 (3x[Q:1/4=61] [Aa] x[Q:1/4=65] [__Ee]2-[Q:1/4=61] (3[Ee][_F_f][Q:1/4=52][Gg])[Q:1/4=65] | %12
[Q:1/4=62] [Aa]4-[Q:1/4=65] [Aa]4[Q:1/4=66]!<(! z4[Q:1/4=67][Q:1/4=60][Q:1/4=54]!<)![Q:1/4=64] | %13
!mp![Q:1/4=62]"_cresc." (3:2:1([^d^d']3 (3x[Q:1/4=61] [=e=e'] x[Q:1/4=65] (3:2:1[cc']3 (3x[Q:1/4=61] [=A=a] x[Q:1/4=65] [=Ee]2-[Q:1/4=61] (3[Ee][=G=g][Q:1/4=52][Aa])[Q:1/4=65] | %14
[Q:1/4=62]!<(! [=B^d=b]8[Q:1/4=65][Q:1/4=66][Q:1/4=67] (3Bd^f!<)![Q:1/4=68] (3b[Q:1/4=60]^d'[Q:1/4=52]^f'[Q:1/4=64] | %15
"_molto espressivo"!f![Q:1/4=62] (3:2:1([^f^f']3[Q:1/4=65] (3x[Q:1/4=62] [^g^g'] x[Q:1/4=65] (3:2:1[=e=e']3 (3x[Q:1/4=62] [^d^d'] x[Q:1/4=65] (3z z d[Q:1/4=66] (3g=b[Q:1/4=52]d') | %16
"_sempre"[Q:1/4=62]!<(! (3:2:1([_a_a']3[Q:1/4=65] (3x[Q:1/4=62] [bb'] x[Q:1/4=65] (3:2:1[_g_g']3 (3x[Q:1/4=62] [ff'] x[Q:1/4=65] [=B=b][=c=c'][Q:1/4=64][dd']"^""^"[_e_e'])!<)! | %17
!ff! (3!arpeggio![fad'f'][Q:1/4=65] d'a[Q:1/4=64] (3fde[Q:1/4=63] (3fcA[K:bass][Q:1/4=62] (3C!>(!F,G,[Q:1/4=61] (3!>!A,C,G,[Q:1/4=60] (3A,C[Q:1/4=80]E!>)![Q:1/4=50] | %18
[K:treble]!p![Q:1/4=60] (3AC"_rall."E[Q:1/4=58] (3Ace[Q:1/4=54] (3a!>(!(.c.e[Q:1/4=50] (3.a!8va(!.c'[Q:1/4=40].c'')!>)!!pp![Q:1/4=40] [d'd'']2!8va)! !fermata!z2[Q:1/4=30] || %19
[K:E][M:3/4]"^Allegretto molto moderato."[Q:1/4=80]!p! (c2[Q:1/4=92] ^Bc B2 | %20
 ^A2 G2[Q:1/4=88] E=A |[Q:1/4=94] G2[Q:1/4=88] B2[Q:1/4=90] Gc | %22
[Q:1/4=88] B2[Q:1/4=84] d2[Q:1/4=88] gd |[Q:1/4=92] g2 d2[Q:1/4=88] gd | %24
[Q:1/4=92] e2 F2[Q:1/4=88] =DF) |[Q:1/4=92]!<(! G4[Q:1/4=84] !>!G2-!<)! | %26
!mf![Q:1/4=92] G4[Q:1/4=84][Q:1/4=72] G2[Q:1/4=52] | %27
"_dolce"!p![Q:1/4=92] [Cc]2 [^B,^B][Cc] [B,B]2 | ^A2 G2[Q:1/4=88] (E=A | %29
[Q:1/4=92] G2 B2[Q:1/4=88] [Ee][Q:1/4=80][Gg] | %30
[Q:1/4=92] [Bb]2 [cc']2)[Q:1/4=88]"_cresc." ([ee'][Q:1/4=84][Bb] | %31
[Q:1/4=92] [ee']2 [Bb]2)[Q:1/4=88] ([ee'][Q:1/4=84][Bb] | %32
[Q:1/4=92]"_sempre" [=f=f']2 [Bb]2)[Q:1/4=88] ([ff'][Q:1/4=84][Bb] | %33
[Q:1/4=88]!mf!!<(! [aa']2 [=c=c']3)[Q:1/4=80] [cc']!<)! | %34
!ff![Q:1/4=88] !>![^ac'^^f'^a']4[Q:1/4=84] (.[be'b'].[gg']) | %35
[Q:1/4=92]!>(! (.[egc'e'].[ec'][Q:1/4=88].[cg].[Ge][Q:1/4=82].[DB].[Gc])!>)! | %36
!p![Q:1/4=76] ([B-db-]2 [Beb])[Q:1/4=80] z[Q:1/4=88] z2[Q:1/4=70] |"_dolce"[Q:1/4=94] x6 | %38
 (A2 B=G[Q:1/4=88] A2)[Q:1/4=84] |[Q:1/4=92]!>(! !>!=c6!>)! |[Q:1/4=94] z [^B,F] z [B,G] z [B,G] | %41
!<(! (A2 B=G[Q:1/4=88] A2)!<)![Q:1/4=84] |!mf![Q:1/4=94] !>!=d6- |!p! (=d2 B^c A2 | %44
 G2 ^EF[Q:1/4=88] A2)[Q:1/4=84] |[Q:1/4=94] =d6- | (d2 Bc A2 | G2 ^EF[Q:1/4=88] A2)[Q:1/4=84] | %48
[Q:1/4=94] =d6 |[Q:1/4=95]!<(! (^d2 ^e2!<)!!mp! f2) |!p![Q:1/4=96] =d6 | %51
[Q:1/4=97]!<(! (^d2 ^e2!<)!!mp! f2) |!p![Q:1/4=98] =e6 |[Q:1/4=99]"_cresc." (=f2 =g2 _a2) | %54
[Q:1/4=100] (_a2 _b2 _c'2) |[Q:1/4=102] (=b2 ^c'2 =d'2) | %56
!mf![Q:1/4=104]!<(! (=d'2 e'2[Q:1/4=100][Q:1/4=90] =f'2)[Q:1/4=80]!<)! || %57
[M:3/2][Q:1/4=63]!ff! (3:2:1([^f^f']3[Q:1/4=66] (3x[Q:1/4=63] [^g^g'] x[Q:1/4=66] (3:2:1[ee']3 (3x[Q:1/4=63] [^d^d'] x[Q:1/4=66] (3z z d (3g[Q:1/4=60]^b[Q:1/4=52]d') || %58
[K:Db]!ff![Q:1/4=63] (3:2:1([aa']3[Q:1/4=66] (3x[Q:1/4=63] [bb'] x[Q:1/4=66] (3:2:1[gg']3 (3x[Q:1/4=63] [ff'] x[Q:1/4=66] [=B=b][=c=c'][Q:1/4=63][dd']"^""^"[_e_e']) | %59
[Q:1/4=66] (3!arpeggio![fad'f'] d'a (3fde (3fcA[K:bass] (3CF,=G, (3!>!A,D,F,[Q:1/4=63] (3A,D[Q:1/4=60]F | %60
[Q:1/4=63] !>!A,2[K:treble] (.a2 .c2 .B2)[Q:1/4=63] (6:4:6!>!^G=B=E[Q:1/4=60]=eG[Q:1/4=52]^g[Q:1/4=66] | %61
[Q:1/4=63]!>(! !>!^G2!8va(! ([^g'^g'']2 [!courtesy!=c'!courtesy!=c'']2 [_b_b']2!>)!!p![Q:1/4=63] [_a_a']3)!8va)![Q:1/4=52] [Aa][Q:1/4=66][Q:1/4=60] | %62
[Q:1/4=63]!pp! x2 A,/C/E/A/ z/ c/e/a/[Q:1/4=60] c'/e'/[Q:1/4=52]!8va(!a'/c''/[Q:1/4=60] [d'a'd'']2!8va)! !fermata!z2[Q:1/4=66][Q:1/4=30] || %63
[M:4/2]"^Allegro moderato."!pp!"_leggiero"[Q:1/2=84][I:staff +1] F/A/d/f/"_sempre"[I:staff -1]g/f/d/f/[I:staff +1] F/A/d/f/[I:staff -1]g/f/d/f/[I:staff +1] F/=G/d/f/[I:staff -1]=g/f/d/f/[I:staff +1] F/A/d/f/[I:staff -1]g/f/d/f/ | %64
[I:staff +1] F/A/d/f/[I:staff -1]_g/f/d/f/[I:staff +1] F/B/d/f/[I:staff -1]g/f/d/f/ | %65
[I:staff +1] F/=G/d/f/[I:staff -1]=g/f/d/f/[Q:1/2=80][I:staff +1] F/A/d/f/[Q:1/2=78][I:staff -1]g/f/d/f/ || %66
[K:A]"^docle"!pp! c'8-!<(! (c'2 a2 c'2 ^d'2)!<)! | %67
!mp! e'8- e'4[Q:1/2=78]!>(! (3(^d'2 ^f'2 e'2)!>)! |!p![Q:1/2=84] ^c'8- | (c'2 a2 c'2 ^d'2) | %70
 ^d'2 e'6-"_cresc." (e'2[Q:1/2=82] =c'2[Q:1/2=80] e'2[Q:1/2=78] f'2) | %71
[Q:1/2=84] ^^f'2 !>!g'4 g'2!mf! (!>!a'4 e'2 c'2 | d'4 c'4 | %73
!>(! b2 a2[Q:1/2=80] =g3 =f)!>)![Q:1/2=78] |!p![Q:1/2=84] e8- e4 z4 | %75
 z2"^dolce" c2- c4- (c2 A2[Q:1/2=80] c2[Q:1/2=78] ^d2) |[Q:1/2=84] e8- | %77
 e4[Q:1/2=78] (3(^d2 f2 e2) |[Q:1/2=84] z2 c'2- c'4- (c'2 a2[Q:1/2=80] c'2[Q:1/2=78] ^d'2) | %79
[Q:1/2=84]!<(! ^d'2 e'6- (e'2 =c'2[Q:1/2=80] e'2[Q:1/2=78] f'2)!<)! | %80
[Q:1/2=84]"_sempre cresc." (^^f'2 !>!g'4) g2 |!f! !>!a4 e2 c2 | %82
 d4 c2 (g2 f2 e2[Q:1/2=80] c3 B)[Q:1/2=78] | %83
[Q:1/2=84] d4 c2!8va(! (g'2 f'2 e'2[Q:1/2=80] c'3 b!8va)![Q:1/2=78] | %84
 d'4!>(! c'2) (g2 f2 e2[Q:1/2=80] ^B3 ^A)!>)![Q:1/2=78] || %85
[K:E]!p![Q:1/2=60] (d4[Q:1/2=72] G4) (A2 B=G)[Q:1/2=76]!<(! x2 z x!<)! | %86
[Q:1/2=80] x2 !>!=c2[Q:1/2=84] x2 !>!=c' x B/A/=G/=F/ E/=D/=C/B,/[K:bass][Q:1/2=70] A,/=G,/=F,/E,/[Q:1/2=60] =D,/=C,/B,,/A,,/ | %87
[K:treble]!p! z4[Q:1/2=72] (G4 A2 B=G)[Q:1/2=76]!<(! x2 z x!<)! | %88
[Q:1/2=80] x2 !>!=d2[Q:1/2=84] x3/2 d/ !>!=d' x A/=G/!>(!=F/_E/[K:bass][Q:1/2=70] =D/=C/_B,/A,/[Q:1/2=60] =G,/=F,/_E,/=D,/[Q:1/2=50] =C,/_B,,/[Q:1/2=40]A,,/!>)!=G,,/ || %89
[M:3/4][K:treble]"^più moderato"[Q:1/4=92] z (=d B^c A2 | G2 ^EF A2) || %91
[M:3/2]"^allegro"[Q:1/2=50] x2 !>!=d2[Q:1/2=84]!8va(! x3/2 =d'/ !>!=d'' x!8va)! =c'/_b/a/=g/ =f/_e/d/=c/[Q:1/2=80] | %92
 _B/A/=c/B/ A/=G/=F/_E/[K:bass][Q:1/2=70] =D/=C/!>(!_B,/A,/[Q:1/2=60] C/B,/A,/=G,/[Q:1/2=50] =F,/_E,/=D,/=C,/[Q:1/2=40] _B,,/A,,/[Q:1/2=30]=G,,/!>)![Q:1/2=25]^F,,/ || %93
[M:3/4][K:treble]"^più moderato"!p![Q:1/4=80] z[Q:1/4=94] (=d Bc A2 | %94
 G2 ^EF[Q:1/4=88] A2)[Q:1/4=84] |[Q:1/4=92] =d6[Q:1/4=94] | %96
"^espressivo"[Q:1/4=92] (^d2[Q:1/4=94] ^e2[Q:1/4=95] f2) | %97
!<(! (f2[Q:1/4=96] g2!<)![Q:1/4=88] a2)[Q:1/4=80] |!p![Q:1/4=92] e6[Q:1/4=94][Q:1/4=92] | %99
[Q:1/4=94]"^cresc." (=f2 =g2[Q:1/4=95] _a2) | %100
!<(! (_a2[Q:1/4=96] _b2!<)![Q:1/4=88] _c'2)[Q:1/4=80] |!p![Q:1/4=92] ^f6[Q:1/4=94][Q:1/4=92] | %102
[Q:1/4=94]"^sempre cresc." (=g2 a2[Q:1/4=95] _b2) | (_b2[Q:1/4=96] =c'2 _d'2) | %104
[Q:1/4=98]!<(! (^c'2 ^d'2!<)![Q:1/4=88] e'2)[Q:1/4=80] || %105
[M:4/2]"^Tempo Ⅰ."!pp![Q:1/2=84] z4 (b4- b2 f2 b2 c'2 | d'4[Q:1/2=78]!>(! (3^^c'2 ^e'2 c'2)!>)! | %107
[Q:1/2=84] =b2 (f2[Q:1/2=80] b2 c'2 |[Q:1/2=84] d'2 b2 d'2 ^e'2"_cresc." f'2 ^^c'2 f'2 g'2) | %109
!8va(! ^^g'2 ^a'4 a'2!f! !>!b'4!8va)! f'2 d'2 |!>(! (((([egbe']4!>)!!mf! [df^ad'])))) z (f'2 | %111
 ^e'2 c'2[Q:1/2=80] ^a3 g)[Q:1/2=78] | %112
[Q:1/2=84] (((([Bdfb]4 [^Ac^e^a])))) z (c'2 ^b2 g2[Q:1/2=80] ^e3 d)[Q:1/2=78] | %113
"^espressivo"!p![Q:1/2=80] z2 c2 (3(.A2 .c2 .!courtesy!^d2) z2 e2[Q:1/2=78] (3(.!courtesy!^d2 .!courtesy!^f2 .e2) | %114
[Q:1/2=80] z2 d2 (3(.B2 .d2 .^e2) z2 f2[Q:1/2=78] (3(.^e2 .g2 .f2) || %115
[K:Db][Q:1/2=80]"_molto cresc." z2 f2 (3(.d2 .f2 .=g2) z2 ^g2[Q:1/2=78] (3(.^^f2 .^a2 .g2) | %116
[Q:1/2=80] z2 _a2 (3(.d2 .e2 .g2) | z2 a2[Q:1/2=78] (3(.=g2 .b2 .a2) | %118
!f![Q:1/2=80] z2!<(! b2[Q:1/2=78] (3(.[=A=a]2 .[cc']2 .[Bb]2) z2 d'2[Q:1/2=76] (3(.[cc']2 .[ee']2!<)! .[dd']2) || %119
[M:3/2]!ff![Q:1/2=52] (6:4:6z/ [bd']/a/f/d/A/ (6:4:6[df]/A/F/D/A,/F,/ (6:4:6z/ =D,/A,/B,/=D/A/ (6:4:6[B=d]/D/A/B/d/a/[Q:1/2=50] (6:4:6z/ [g__b]/e/__B/G/E/[Q:1/2=48] (6:4:6[GB]/E/[K:bass]__B,/G,/E,/__B,,/ | %120
[K:treble][Q:1/2=52] z[I:staff +1] (3=E,/F,/[I:staff -1]A,/ (3D/F/A/ z z[I:staff +1] (3^C,/=D,/A,/[I:staff -1] (3B,/=D/B/ z z[K:bass] (3__B,,/_E,/_G,/[K:treble][Q:1/2=40] (3__B,/E/G/ z | %121
[K:bass][Q:1/2=20] (6:4:6z/[Q:1/2=52] =A,,/=B,,/^C,/=D,/=E,/ (6:4:6^F,/^G,/=A,/=B,/"_diminuendo"^B,/^D/[Q:1/2=54] (6:4:6^C/A,/=B,/[K:treble]^C/=D/=E/ (6:4:6^F/^G/=A/=B/^B/^d/[Q:1/2=56] (6:4:6^c/B/d/c/=e/d/ (6:4:6^f/e/=a/^g/=b/a/ | %122
[Q:1/2=60] (6:4:6^c'/^b/^d'/c'/=e'/d'/ (6:4:6^f'/e'/=a'/^g'/=b'/a'/!pp!!8va(! ^c''!8va)! z"_long" !fermata!z2"^dolce"[Q:1/4=62] (3:2:1^c3[Q:1/4=64] (3x[Q:1/4=60] =A x | %123
[Q:1/4=64] (3:2:1^F3 (3x[Q:1/4=60] ^G x[Q:1/4=64] (3:2:1=A3 (3x[Q:1/4=60] F x[Q:1/4=64] (3:2:1=E3 (3x[Q:1/4=60] ^F x | %124
[Q:1/4=64]!>(! (3:2:1=G3 (3x[Q:1/4=60] =E x[Q:1/4=64] (3:2:1_D3 (3x[Q:1/4=60] _E!>)! x[Q:1/4=64] (3:2:1F3[Q:1/4=60] (3x[Q:1/4=52] A, x | %125
[Q:1/4=62] (A,4[Q:1/4=62][Q:1/4=65] D4-)[Q:1/4=62][Q:1/4=61] D2[Q:1/4=52] z2[Q:1/4=40][Q:1/4=64] | %126
!p![Q:1/4=62] (3:2:1([dd']3 (3x[Q:1/4=61] [__e__e'] x[Q:1/4=65] (3:2:1[__B__b]3 (3x[Q:1/4=61] [Aa] x[Q:1/4=65] [__Ee]2-[Q:1/4=61] (3[Ee][_F_f][Q:1/4=52][Gg])[Q:1/4=65] | %127
[Q:1/4=62] [Aa]4-[Q:1/4=65] [Aa]4[Q:1/4=66]!<(! z4[Q:1/4=67][Q:1/4=60][Q:1/4=54]!<)![Q:1/4=64] | %128
!mp![Q:1/4=62]"_cresc." (3:2:1([^d^d']3 (3x[Q:1/4=61] [=e=e'] x[Q:1/4=65] (3:2:1[cc']3 (3x[Q:1/4=61] [=A=a] x[Q:1/4=65] [=Ee]2-[Q:1/4=61] (3[Ee][=G=g][Q:1/4=52][Aa])[Q:1/4=65] | %129
[Q:1/4=62] [=B^d=b]8[Q:1/4=65][Q:1/4=66][Q:1/4=67] (3Bd^f[Q:1/4=68] (3b[Q:1/4=60]^d'[Q:1/4=52]^f'[Q:1/4=64] | %130
"^\nespressivo\n"!f![Q:1/4=62] (3:2:1[^f^f']3[Q:1/4=65] (3x[Q:1/4=62] [^g^g'] x[Q:1/4=65] (3:2:1[=e=e']3 (3x[Q:1/4=62] [^d^d'] x[Q:1/4=65] (3z z d[Q:1/4=66] (3g=b[Q:1/4=52]d' | %131
[Q:1/4=62] (3:2:1([_a_a']3[Q:1/4=65] (3x[Q:1/4=62] [bb'] x[Q:1/4=65] (3:2:1[_g_g']3 (3x[Q:1/4=62] [ff'] x[Q:1/4=65]!<(! [=B=b][=c=c'][Q:1/4=64][dd']"^""^"[_e_e'])!<)! | %132
!ff! (3!arpeggio![fad'f'][Q:1/4=65] d'a (3fde (3fcA[K:bass] (3CF,G, (3!>!A,D,F,[Q:1/4=62] (3A,D[Q:1/4=52]F | %133
[K:bass][Q:1/4=62] !>!^G,2[K:treble] ([^g^g']2 [=B=b]2 [=A=a]2[Q:1/4=62]!>(! [^Gg]3) [Gg]!>)![Q:1/4=65][Q:1/4=60]"^\n" | %134
!p![Q:1/4=64]"_e cresc." ([^B^b]2 [^A^a]2[Q:1/4=65] [^c^c']2 [Bb]2[Q:1/4=62] [^d^d']3 [cc'][Q:1/4=60]"^\n" | %135
!mp![Q:1/4=64]"_molto cresc." [=e=e']2 [^d^d']2[Q:1/4=65] [_g_g']2 [=f=f']2[Q:1/4=62] [_a_a']3 [=g=g'])[Q:1/4=60]"^\n" | %136
!f![Q:1/4=64]!8va(! ([bb']2 [aa']2[Q:1/4=65] [_c'_c'']2"_dim." [__b__b']2[Q:1/4=62]!p! [_d'_d'']3 [=c'=c''])[Q:1/4=60]"^\n" | %137
"_dolce"[Q:1/4=64] [d'f'd'']2!8va)! (f2[Q:1/4=65] c2 B2[Q:1/4=62] A3[Q:1/4=60] A) | %138
[Q:1/4=64] A2 z (.a2[Q:1/4=65] ._c2 .B2[Q:1/4=62] .A2[Q:1/4=60] .A-) | %139
"^dolcissimo"[Q:1/4=62] A3[Q:1/4=60] A[Q:1/4=61]"^\n" A3[Q:1/4=59] A[Q:1/4=58]"^\n" A3[Q:1/4=56] A | %140
[Q:1/4=54]"^\n" !arpeggio![DFA]8[Q:1/4=52]"^\n" !arpeggio![DFA]4[Q:1/4=46]"^\n"[Q:1/4=40] | %141
!pp! !fermata![DFA]8 |] %142
V:2
(3xFA, (3FAF | %1
(3xC[I:staff +1]F,[I:staff -1] (3C=GC(3xD[I:staff +1]F,[I:staff -1] (3DF[I:staff +1]A,[I:staff -1](3x[I:staff +1]B,_G, (3B,[I:staff -1]F[I:staff +1]F, | %2
[I:staff -1](3x[I:staff +1]_CE, (3C[I:staff -1]E[I:staff +1]F,[I:staff -1](3x[I:staff +1]B,G, (3B,[I:staff -1]E[I:staff +1]B,[I:staff -1](3x[I:staff +1]G,C, (3G,[I:staff -1]A,[I:staff +1]G, | %3
[I:staff -1] x2[I:staff +1] (3C,G,A,[I:staff -1] x2[I:staff +1] (3D,F,A, (3A,,D,F,[I:staff -1] (3A,DF | %4
(3xE[I:staff +1]G,[I:staff -1] (3EBE(3x[I:staff +1]B,A, (3B,[I:staff -1]F[I:staff +1]B,[I:staff -1](3x[I:staff +1]G,_C, (3G,G,[I:staff -1]_C | %5
 (3A=C[I:staff +1]F, (3F,A,C[I:staff -1] (3ECG,[I:staff +1] (3G,A,C (3A,,G,A, (3G,[I:staff -1]CE | %6
(3x!<(!E[I:staff +1]G,[I:staff -1] (3EBE(3x_C[I:staff +1]A,[I:staff -1] (3CFC(3x[I:staff +1]G,_C, (3G,G,[I:staff -1]C!<)! | %7
 (3_cE_C[I:staff +1] (3F,A,,D,,-[I:staff -1] (3__BD__B,[I:staff +1] (3_F,__B,,_F,,[I:staff -1](3x^C[I:staff +1]=E,[I:staff -1] (3C=AC | %8
(3x^C[I:staff +1]=A,[I:staff -1] (3C^G[I:staff +1]^G,[I:staff -1](3x=D[I:staff +1]^F,[I:staff -1] (3D^F[I:staff +1]G,[I:staff -1](3x^C[I:staff +1]=G,[I:staff -1] (3CF[I:staff +1]F, | %9
[I:staff -1](3x^C[I:staff +1]=E,[I:staff -1] (3C=E[I:staff +1]^F,[I:staff -1](3x[I:staff +1]=G,_E, (3G,[I:staff -1]_E[I:staff +1]_D,[I:staff -1](3x[I:staff +1]_G,C, (3G,[I:staff -1]A,[I:staff +1]G, | %10
[I:staff -1] x2[I:staff +1] (3C,G,A,[I:staff -1] x2[I:staff +1] (3D,F,A, (3A,,D,F,[I:staff -1] (3A,DF | %11
 a4 __e4 e4 | (d4 c4) (3GAc (3eac' | =a4 =e4 e4 | %14
 x4[I:staff +1] (3=B,,=A,[I:staff -1] =B, (3^D^F=A z4 | %15
 (3z =B,[=E^G] (3=B[EG]B, (3z ^B,^F (3GFB, (3z ^EG (3B^d^e | %16
 (3z [_C=D]=F (3_cF[CD] (3z[I:staff +1] [A,B,]=D[I:staff -1] (3A[I:staff +1]D[A,B,][I:staff -1] (3z[I:staff +1] [=G,_D]E[I:staff -1] (3=G[I:staff +1]E[G,D] | %17
 x6[I:staff -1][K:bass] x6 |[K:treble] x20/3!8va(! x10/3!8va)! x2 ||[K:E][M:3/4] z E2 C2 D- | %20
 D C2 =B,2 C- | C D2 E2 G- | G ^^F2 G2 F- | ^^F ^E2 G2 F- | F ^F2 =D2 C | B,^B, E D2 C | %26
 G,2!>(! D C2 ^B,!>)! | z E z C z D | z C z B, z C | z D z E z c | x6 | x6 | x6 | x6 | x6 | x6 | %36
 x6 | z [^B,F] z ([B,F]ED) | z !courtesy!^C z [B,=D] z C | z [=CA] z [CA]3 | z x z (FED) | %41
 z !courtesy!^C z [B,=D] z C | z =D z [D=G] z [DA] | z [=D=B] z B, z C | z =D z D z D | %45
 z [=D=F] z [D=G] z [DA] | z [=D=B] z B, z C | z =D z D z D | z [=D=F] z [D=G] z [D_A] | %49
 z [^D=A] z [^EG] z F | z [=D=F] z [D=G] z [D_A] | z [^D=A] z [^EG] z F | z [E=G] z [EA] z [E_B] | %53
 z [=FB] z [=G_B] z _A | z [_A__e] z [_B_d] z _c | z [=B=f] z [^ce] z =d | z [=d_a] z [e_g] z =f || %57
[M:3/2] (3z ^B,[E^G] (3^B[EG]B, (3z B,F (3GFB, (3z ^EG (3=Bd^e || %58
[K:Db] (3z [_C=D]=F (3_cF[CD] (3z[I:staff +1] [A,B,]=D (3AD[A,B,][I:staff -1] (3z[I:staff +1] [=G,_D]E (3=GE[G,D] | %59
 x6[I:staff -1][K:bass] x6 | x8[K:treble] (3:2:1x3 (3x ^G x | =E2!8va(! x2 x8!8va)! | %62
 x7!8va(! x3!8va)! x2 ||[M:4/2] x16 | x8 | x8 ||[K:A] x16 | x16 | x8 | x8 | x16 | x16 | x8 | x8 | %74
 x16 | x16 | x8 | x8 | x16 | x16 | x8 | x8 | x16 | x6!8va(! x10!8va)! | x16 || %85
[K:E] z [CG] z [CG] z [^B,F]E[B,D] z C z [=B,=D] x4 | x12[K:bass] x4 | %87
[K:treble] z [^B,F] z [B,F] z [B,F]E[B,D] z C z [B,=D] x4 | x10[K:bass] x6 || %89
[M:3/4][K:treble] z =D z B, z C | z =D z D z D ||[M:3/2] x4!8va(! x4!8va)! x4 | x4[K:bass] x8 || %93
[M:3/4][K:treble] z =D z B, z C | z =D z D z D | z [=D=F] z [D=G] z [D_A] | z [^DA] z [^EG] z F | %97
 z [F=c] z [GB] z!mp! A | z [E=G] z [EA] z [E_B] | z [=F=c] z [=G_B] z _A | %100
 z [_A__e] z [_B_d] z!mp! _c | z [^FA] z [FB] z [F=c] | z [=G_d] z [A=c] z _B | %103
 z [_B_f] z [=c_e] z!mp! _d | z [^c=g] z [^df] z!mp! e ||[M:4/2] x16 | x8 | x8 | x16 | %109
!8va(! x12!8va)! x4 | x8 | x8 | x16 | x16 | x16 ||[K:Db] x16 | x8 | x8 | x16 || %119
[M:3/2] x32/3[K:bass] x4/3 |[K:treble] x9[K:bass] x[K:treble] x2 |[K:bass] x5[K:treble] x7 | %122
 ^c'2 [=E=A^c=e] z!8va(! [e=ac'=e']!8va)!xx2(3x=E^C (3EAC | %123
(3x^C[I:staff +1]=A,[I:staff -1] (3C^G[I:staff +1]^G,[I:staff -1](3x=D[I:staff +1]^F,[I:staff -1] (3D^F[I:staff +1]G,[I:staff -1](3x^C[I:staff +1]=G,[I:staff -1] (3CF[I:staff +1]F, | %124
[I:staff -1](3x^C[I:staff +1]!courtesy!=E,[I:staff -1] (3C=E[I:staff +1]^F,[I:staff -1](3x[I:staff +1]=G,_E, (3G,[I:staff -1]_E[I:staff +1]_D,[I:staff -1](3x[I:staff +1]_G,C, (3G,[I:staff -1]A,[I:staff +1]G, | %125
[I:staff -1] x2[I:staff +1] (3C,G,A,[I:staff -1] x2[I:staff +1] (3D,F,A, (3A,,D,F,[I:staff -1] (3A,DF | %126
 a4 __e4 e4 | (d4 c4) (3GAc (3eac' | =a4 =e4 e4 | %129
 x4[I:staff +1] (3=B,,=A,!mf!!<(![I:staff -1] =B, (3^D^F=A x4!<)! | %130
 (3z =B,[=E^G] (3=B[EG]B, (3z ^B,^F (3GFB, (3z ^EG (3B^d^e | %131
 (3z [_C=D]=F (3_cF[CD] (3z[I:staff +1] [A,B,]=D[I:staff -1] (3A[I:staff +1]D[A,B,][I:staff -1] (3z[I:staff +1] [=G,_D]E[I:staff -1] (3=G[I:staff +1]E[G,D] | %132
 x6[I:staff -1][K:bass] x6 |[K:bass] x2[K:treble] x10 | ^g4 =g4 =b4 | =a4 _e'4 _d'4 | %136
!8va(! =d'4 e'4 g'4 | z4!8va)! z4 [_CE]2"^\n" [=C=E]2 | [DF]2 z2 z4 [_CE]2"^\n" [=C=E]2 | %139
 [_C-_E]2"^\n" [C_F]2 [=CE]2"^\n" [_C-F]2 [CE]2"^\n" [=C=E]2 | x12 | x8 |] %142
V:3
!ped! D,,4!ped-up! |!ped! [A,,,A,,]4!ped-up!!ped! [B,,,B,,]4!ped-up!!ped! [C,,C,]4!ped-up! | %2
!ped! [D,,D,]4!ped-up!!ped! [G,,,G,,]4!ped-up!!ped! [A,,,A,,]4!ped-up! | %3
!ped! D,,4-!ped-up!!ped! D,,4-!ped-up!!ped! D,,2 x2!ped-up! | %4
!ped! C,,4!ped-up!!ped! =D,,4!ped-up!!ped! E,,4!ped-up! | %5
!ped! [A,,,A,,]4!ped-up!!ped! A,,4!ped-up!!ped! x4!ped-up! | %6
!ped! C,,4!ped-up!!ped! =D,,4!ped-up!!ped! E,,4!ped-up! | %7
!ped! D,,4!ped-up!!ped! D,,4!ped-up!!ped! [=A,,,=A,,]4!ped-up! | %8
!ped! [=D,,=D,]4!ped-up!!ped! [=E,,=E,]4!ped-up!!ped! [=A,,,=A,,]4-!ped-up! | %9
!ped! [A,,,A,,]2 [!courtesy!_B,,,!courtesy!_B,,]2-!ped-up!!ped! [B,,,B,,]2 [_E,,,_E,,]2!ped-up!!ped! [_A,,,_A,,]4!ped-up! | %10
!ped! D,,4-!ped-up!!ped! D,,4-!ped-up!!ped! D,,2 z2!ped-up! | %11
!pp!!ped! (3z F,,D, (3A,__E,_C!ped-up!!ped! (3z _C,F, (3__B,F,__E!ped-up!!ped! (3z __B,,G, (3B,G,E!ped-up! | %12
!ped! (3z A,,E, (3G,E,D!ped-up!!ped! (3z A,,E, (3G,C[I:staff -1]E!ped-up!!ped![I:staff +1] x4!ped-up! | %13
!p!!ped!"_cresc." (3z C,=A, (3^DA,=E!ped-up!!ped! (3z C,_B, (3CB,E!ped-up!!ped! (3z C,A, (3CA,E!ped-up! | %14
!ped! (3z =B,,^G, (3=B,G,^D!ped-up!!ped! !>!=E,,8!ped-up! | %15
!ped! =E,,4!ped-up!!ped! [^G,,^G,]4!ped-up!!ped! [^C,G,=B,^E]4!ped-up! | %16
!ped! [_G,,_G,]4!ped-up!!ped! [B,,,B,,]4!ped-up!!ped! [E,,E,]4!ped-up! | %17
!ped! x2 !>!F2 !>!C2 !>!B,2!ped-up!!ped![I:staff -1] A,3[I:staff +1] A,!ped-up!!ped! | %18
 !>![A,,E,G,A,]4 (3z (.G.E (3.A,.G,.A,,)!ped-up!!ped! [A,,D,F,A,]2 !fermata!z2!ped-up! || %19
[K:E][M:3/4]!p!!ped! z [C,G,]!ped-up!!ped! z [G,,E,]!ped-up!!ped! z [F,G,]!ped-up! | %20
!ped! z [E,^^F,]!ped-up!!ped! z [G,,E,]!ped-up!!ped! z [A,,E,]!ped-up! | %21
!ped! z [B,,A,]!ped-up!!ped! z [C,G,]!ped-up!!ped! z [E,^A,]!ped-up! | %22
!ped! z [D,B,]!ped-up!!ped! z [B,C]!ped-up!!ped! z [^A,C] | %23
!ped! z [G,C]!ped-up!!ped! z [^B,C]!ped-up!!ped! z [^A,C]!ped-up! | %24
!ped! z [C,=A,]!ped-up!!ped! z [B,,G,]!ped-up!!ped! z [A,,C,]!ped-up! | %25
!ped!!<(! z [G,,E,]!ped-up!!ped! z [^B,,F,]!ped-up!!ped! z [C,E,]!ped-up!!<)! | %26
!mf!!ped! z [=B,,E,]!ped-up!!ped!!>(! z [E,,G,,E,]!ped-up!!ped! z [D,,G,,F,]!ped-up!!>)! | %27
!p!!ped! z [C,G,]!ped-up!!ped! z [G,,E,]!ped-up!!ped! z [F,G,]!ped-up! | %28
!ped! ^A,2!ped-up!!ped! G,2!ped-up!!ped! E,=A,!ped-up! | %29
!ped! F,2!ped-up!!ped! B,2!ped-up!!ped! x2!ped-up! | %30
!ped! z [A,DF]!ped-up!!ped! z [=G,^A,E]!ped-up!!ped! z [F,=A,D]!ped-up! | %31
!ped! z [E,A,C]!ped-up!!ped! z [^G,A,E]!ped-up!!ped! z [F,A,D]!ped-up! | %32
!ped! z [=F,G,=D]!ped-up!!ped! z !courtesy!^C!ped-up!!ped!=D^D!ped-up! | %33
!ped! z [E,,=C,E,] [E,=G,=C]E[G,CE]A!ped-up! | %34
!ped! z[I:staff -1] ([E^^Fd]c^A)(.[G,B,G].E)!ped-up! | %35
!ped![I:staff +1] !>![A,,,A,,] (.[CG].[G,E].[E,C].[B,,G,].[B,,,B,,])!ped-up! | %36
!ped! [A,F]B,,!ped-up!!ped! [E,,B,,G,]!ped-up!!ped! (B,G,E,)!ped-up! | %37
!ped! (D,2!ped-up!!ped! E,D,!ped-up!!ped! F,2)!ped-up! | %38
!ped! E,2!ped-up!!ped! !courtesy!^F,2!ped-up!!ped! E,2-!ped-up! |!ped! E,4!ped! ^D,2-!ped-up! | %40
!ped! (D,2!ped-up!!ped! E,D,!ped-up!!ped! F,2)!ped-up! | %41
!ped! E,2!ped-up!!ped! !courtesy!^F,2!ped-up!!ped! E,2!ped-up! | %42
!ped!!>(! =F,6!ped-up!!ped!!ped-up!!ped!!>)!!ped-up! | %43
!ped! z G,!ped-up!!ped! z [C,G,]!ped-up!!ped! z ^E,!ped-up! | %44
!ped! z A,!ped-up!!ped! z !courtesy!^G,!ped-up!!ped! z F,!ped-up! | %45
!ped! =F,6!ped-up!!ped!!ped-up!!ped!!ped-up! | %46
!ped! z ^G,!ped-up!!ped! z [^C,G,]!ped-up!!ped! z ^E,!ped-up! | %47
!ped! z B,!ped-up!!ped! z A,!ped-up!!ped! z F,!ped-up! | %48
!ped! z (A,!ped-up!!ped!=G,E,!ped-up!!ped!=F,_C,)!ped-up! | %49
!ped! z (^F,!ped-up!!ped!^G,^E,!ped-up!!ped!A,^D,)!ped-up! | %50
!ped! z (A,!ped-up!!ped!=G,E,!ped-up!!ped!=F,_C,)!ped-up! | %51
!ped! z (^F,!ped-up!!ped!^G,^E,!ped-up!!ped!A,^D,)!ped-up! | %52
!ped! z (B,!ped-up!!ped!A,F,!ped-up!!ped!G,_D,)!ped-up! | %53
!ped! z (_A,!ped-up!!ped!_B,=G,!ped-up!!ped!_C=F,)!ped-up! | %54
!ped! z (_C!ped-up!!ped!_D_B,!ped-up!!ped!__E_A,)!ped-up! | %55
!ped! z (=D!ped-up!!ped!E^C!ped-up!!ped!=FB,)!ped-up! | %56
!ped! x[I:staff -1] =F!ped-up!!ped!=G=E!ped-up!!ped!_A=D!ped-up! || %57
[M:3/2]!ped![I:staff +1] [E,,E,]4!ped-up!!ped! [^G,,^G,]4!ped-up!!ped! [^C,G,=B,^E]4!ped-up! || %58
[K:Db]!ped! [G,,G,]4!ped-up!!ped! [B,,,B,,]4!ped-up!!ped! [E,,E,]4!ped-up! | %59
!ped! z2 !>!F2 !>!C2 !>!B,2!ped-up!!ped![I:staff -1] A,3[I:staff +1] A,!ped-up! | %60
!ped! (3z !>!A,=E, (3=ECE, (3z !>!B,E, (3ECE,!ped-up!!ped! (3=B,2 ^C2 =D2!ped-up! | %61
!ped! (3z =E,[^G,=C] (3=E[G,C]E,!ped-up!!ped! (3z F,[_B,C] (3F[B,C]F,!ped-up!!ped! (3:2:4z [_G,G]2 [_A,F]2 [G,_E]!ped-up! | %62
!ped! z/ A,,/E,/G,/ z2 [G,A,CG]4!ped-up!!ped! [F,A,DF]2 !fermata!z2!ped-up! || %63
[M:4/2][K:treble]!ped! x16!ped-up!!ped!!ped-up!!ped!!ped-up! |!ped! x8!ped-up!!ped!!ped-up! | %65
!ped! x8!ped-up!!ped!!ped-up! || %66
[K:A]!pp!!ped! E/A/c/e/[I:staff -1]f/e/c/e/[I:staff +1] E/A/c/e/[I:staff -1]f/e/c/e/!ped-up!!ped!!<(![I:staff +1] ^D/E/A/c/[I:staff -1]f/e/c/e/!ped-up!!ped![I:staff +1] C/F/A/c/[I:staff -1]f/e/c/e/!<)!!ped-up! | %67
!p!!ped![I:staff +1] =C/E/=G/=c/[I:staff -1]a/=g/e/g/!ped-up!!ped![I:staff +1] =G,/C/E/G/[I:staff -1]a/g/e/g/!ped-up!!ped![I:staff +1] A/c/e/=g/[I:staff -1]a/g/e/g/!ped-up!!ped!!>(![I:staff +1] (6:4:6FAc ecA!ped-up!!>)! | %68
[K:bass]!p!!ped! E,/A,/^C/E/[I:staff -1]f/e/^c/e/[I:staff +1][K:treble] E/A/c/e/[I:staff -1]f/e/c/e/!ped-up! | %69
!ped![I:staff +1] ^D/E/A/c/[I:staff -1]f/e/c/e/!ped-up!!ped![I:staff +1] C/F/A/c/[I:staff -1]f/e/c/e/!ped-up! | %70
!ped![I:staff +1] =G,/=C/E/=G/[I:staff -1]a/=g/e/g/[I:staff +1] G/=c/e/g/[I:staff -1]a/g/e/g/!ped-up!!ped!"_cresc."[I:staff +1] F/G/c/e/[I:staff -1]a/g/e/g/!ped-up!!ped![I:staff +1] E/G/c/e/[I:staff -1]d'/=c'/g/c'/!ped-up! | %71
!ped!!<(![I:staff +1] ^D/F/^G/^B/[I:staff -1]g'/^b/f/b/!ped-up!!ped![I:staff +1] =D/=F/G/=B/[I:staff -1]g'/=b/=f/!<)!b/!ped-up!!mp!!ped![I:staff +1] C/E/A/c/[I:staff -1]e'/c'/a/c'/!ped-up!!ped![I:staff +1] E/A/c/e/[I:staff -1]c'/a/e/a/!ped-up! | %72
!ped![I:staff +1] E,/B,/D/G/[I:staff -1]g/f/d/f/!ped-up![I:staff +1][K:treble]!ped! A,/E/=G/c/[I:staff -1]=g/e/c/e/!ped-up! | %73
!ped!!>(![I:staff +1] B,/=F/=G/d/[I:staff -1]a/=f/d/A/!ped-up![I:staff +1][K:bass]!ped! =C,/=G,/_B,/E/[I:staff -1]e/_B/=F/B/!>)!!ped-up! | %74
!p!!ped![I:staff +1] D,/E,/^G,/=B,/[I:staff -1]=B/^G/E/G/!ped-up!!ped![I:staff +1] D,/E,/G,/^A,/[I:staff -1]^A/G/E/G/!ped-up!!ped![I:staff +1] D,/E,/G,/^B,/[I:staff -1]^B/G/E/G/!ped-up!!ped![I:staff +1] E,,/D,/G,/D/[I:staff -1]c/G/E/G/!ped-up! | %75
!ped![I:staff +1] E,/A,/C/E/[I:staff -1]F/E/C/E/[I:staff +1] E,/A,/C/E/[I:staff -1]F/E/C/E/!ped-up!!ped![I:staff +1] ^D,/E,/A,/C/[I:staff -1]F/E/C/E/!ped-up!!ped![I:staff +1] C,/F,/A,/C/[I:staff -1]F/E/C/E/!ped-up! | %76
!ped![I:staff +1] =C,/E,/=G,/=C/[I:staff -1]A/=G/E/G/!ped-up!!ped![I:staff +1] =G,,/C,/E,/G,/[I:staff -1]A/G/E/G/!ped-up! | %77
!ped![I:staff +1] =G,/=C/E/=G/[I:staff -1]A/=G/E/G/!ped-up!!ped![I:staff +1] (6:4:6F,A,C ECA,!ped-up! | %78
!ped! E,/A,/^C/E/[I:staff -1]f/e/c/e/[I:staff +1][K:treble] E/A/c/e/[I:staff -1]f/e/c/e/!ped-up!!ped![I:staff +1] ^D/E/A/c/[I:staff -1]f/e/c/e/!ped-up!!ped![I:staff +1] C/F/A/c/[I:staff -1]f/e/c/e/!ped-up! | %79
!ped!!<(![I:staff +1] =G,/=C/E/=G/[I:staff -1]a/=g/e/g/!ped-up!!ped![I:staff +1] G/=c/e/=g/[I:staff -1]a/g/e/g/!ped-up!!ped![I:staff +1] ^F/G/c/e/[I:staff -1]a/g/e/g/!ped-up!!ped![I:staff +1] E/G/c/e/[I:staff -1]d'/=c'/g/c'/!<)!!ped-up! | %80
!ped!"_cresc."[I:staff +1] ^D/F/^G/^B/[I:staff -1]g'/^b/f/b/!ped-up!!ped![I:staff +1] =D/=F/^G/=B/[I:staff -1]g/=B/=F/B/!ped-up! | %81
!mf!!ped![I:staff +1] C/E/A/c/[I:staff -1]e/c/A/c/!ped-up![I:staff +1][K:bass]!ped! E,/A,/C/E/[I:staff -1]c/A/E/A/!ped-up! | %82
!ped![I:staff +1] A,,/E,/F,/D/[I:staff -1]F/E/D/E/!ped-up!!ped![I:staff +1] ^A,,/E,/F,/C/[I:staff -1]g/e/c/G/!ped-up!!ped![I:staff +1] B,,/E,/A,/D/[I:staff -1]e/d/A/E/!ped-up!!ped![I:staff +1] E,,/D,/E,/G,/D/[I:staff -1]E/G/E/!ped-up! | %83
!ped![I:staff +1] A,,/E,/F,/D/[I:staff -1]F/E/D/E/!ped-up![I:staff +1][K:treble]!ped! ^A,/E/F/c/!8va(![I:staff -1]g'/e'/c'/g/!ped-up!!8va)!!ped![I:staff +1] B,/E/A/d/!8va(![I:staff -1]e'/d'/a/e/!ped-up!!8va)![I:staff +1][K:bass]!ped! E,/[K:treble]D/E/G/d/!8va(![I:staff -1]e/g/e/!ped-up!!8va)! | %84
[I:staff +1][K:treble]!ped! G,/D/F/B/[I:staff -1]b/f/d/f/!ped-up!!ped!!>(![I:staff +1] A,/E/G/c/[I:staff -1]g/e/c/G/!ped-up![I:staff +1][K:bass]!ped! C,/G,/^A,/E/[I:staff -1]c/G/E/G/!ped-up!!ped![I:staff +1] ^D,,/^D,/^^F,/[I:staff -1]C/^D/C/(3^A/[I:staff +1]F,/C/!>)!!ped-up! || %85
[K:E]!ped! z2 (D,2 E,D, F,2)!ped-up!!ped! z E, z F,!ped-up!!ped! (3=G,,E,A,[I:staff -1] (3CEA!ped-up! | %86
!mf!!ped![I:staff +1] =G,,/=C,/A,/[I:staff -1]=C/ =F/E/C/E/[I:staff +1][K:treble] =G,/C/A/[I:staff -1]=c/ =f/!>(!e/=d/c/[I:staff +1] x8!ped-up!!>)! | %87
[K:bass]!ped! z2 ^D,2 E,D, F,2!ped-up!!ped! z E, z F,!ped-up!!ped! (3^G,,E,A,[I:staff -1] (3CEA!ped-up! | %88
!ped![I:staff +1] =F,,/=D,/_B,/[I:staff -1] =D/ =G/=F/D/F/[I:staff +1] =F,/[I:staff -1]D/_B/[I:staff +1] x/[I:staff -1] =g/=f/=d/B/[I:staff +1] x8!ped-up! || %89
[M:3/4]!ped! z ^G, z [C,G,]!ped-up!!ped! z ^E,!ped-up! | %90
!ped! z A,!ped-up!!ped! z !courtesy!^G, z F,!ped-up! || %91
[M:3/2]!ped! _B,,/=F,/_B,/[I:staff -1] =D/ =G/=F/D/F/!8va(![I:staff +1] _B/[I:staff -1]=f/_b/[I:staff +1] x/[I:staff -1] =g'/=f'/_e'/=d'/!8va)![I:staff +1] x4!ped-up! | %92
 x12 ||[M:3/4]!ped! z ^G,!ped-up!!ped! z [C,G,]!ped-up!!ped! z ^E,!ped-up! | %94
!ped! z B,!ped-up!!ped! z A,!ped-up!!ped! z F,!ped-up! | %95
!ped! z (A,!ped-up!!ped!=G,E,!ped-up!!ped!=F,_C,)!ped-up! | %96
!ped! z (F,!ped-up!!ped!^G,^E,!ped-up!!ped!A,D,)!ped-up! | %97
!ped! z (A,!ped-up!!ped!B,G,!ped-up!!ped!=CF,)!ped-up! | %98
!ped! z (B,!ped-up!!ped!A,F,!ped-up!!ped!=G,_D,)!ped-up! | %99
!ped! z (_A,!ped-up!!ped!_B,=G,!ped-up!!ped!_C=F,)!ped-up! | %100
!ped! z (_C!ped-up!!ped!_D_B,!ped-up!!ped!__E_A,)!ped-up! | %101
!ped! z (^C!ped-up!!ped!=B,^G,!ped-up!!ped!A,_E,)!ped-up! | %102
!ped! z (_B,!ped-up!!ped!=CA,!ped-up!!ped!_D=G,)!ped-up! | %103
!ped! z (_D!ped-up!!ped!_E=C!ped-up!!ped!_F_B,)!ped-up! | %104
!ped! z (=E!ped-up!!ped!^F^D!ped-up!!ped!=GC)!ped-up! || %105
[M:4/2]!pp!!ped! F,/A,/B,/E/[I:staff -1]e/B/A/B/!ped-up![I:staff +1][K:treble]!ped! A,/B,/E/A/[I:staff -1]f/e/c/e/!ped-up!!ped![I:staff +1] F,/A,/B,/E/[I:staff -1]e/B/A/B/!ped-up!!ped![I:staff +1] A,/B,/D/A/[I:staff -1]g/f/d/f/!ped-up! | %106
!ped![I:staff +1] F,/G,/^B,/G/[I:staff -1]^a/g/d/g/!ped-up!!ped!!>(![I:staff +1] (6:4:6^B,FG ^BGF!ped-up!!>)! | %107
!ped! F,/A,/=B,/E/[I:staff -1]e/B/A/B/!ped-up!!ped![I:staff +1] A,/B,/D/A/[I:staff -1]g/f/d/f/!ped-up! | %108
!ped![I:staff +1] ^^F,/A,/D/^^F/[I:staff -1]^e/d/B/d/!ped-up!!ped![I:staff +1] B,/D/F/B/[I:staff -1]c'/b/e/b/!ped-up!!ped!"_cresc."[I:staff +1] ^A,/^^C/"^"^F/^A/[I:staff -1]g/f/^^c/f/!ped-up!!ped![I:staff +1] F/A/^^c/f/[I:staff -1]g'/c'/g/c'/!ped-up! | %109
!ped![I:staff +1] ^E/G/^A/^^c/!8va(![I:staff -1]^a'/^^c'/g/c'/!ped-up!!8va)!!ped![I:staff +1] =E/=G/A/^c/!8va(![I:staff -1]a'/^c'/=g/c'/!ped-up!!8va)!!mf!!ped![I:staff +1] D/F/B/d/!8va(![I:staff -1]f'/!8va)!d/B/d/!ped-up!!ped![I:staff +1] F/B/d/f/[I:staff -1]d'/b/f/d/!ped-up! | %110
[I:staff +1][K:bass]!>(!!ped! z/ B,,/C,/D,/E,/F,/G,/!>)!!mp!^A,/!ped-up!!ped![I:staff -1] ^B,/C/D/^E/F/G/^A/^B/!ped-up! | %111
!ped![I:staff +1] C/F/^A/c/[I:staff -1] c'/^a/f/c/!ped-up!!ped![I:staff +1] C,/B,/C/^E/[I:staff -1] ^e/c/B/c/!ped-up! | %112
!ped![I:staff +1] z/ F,,/G,,/^A,,/B,,/C,/D,/^E,/!ped-up!!ped! ^^F,/G,/^A,/^B,/C/D/^E/^^F/!ped-up!!ped! G,/C/E/G/[I:staff -1]g/^e/c/G/!ped-up!!ped![I:staff +1] G,,/^F,/G,/^B,/[I:staff -1]^B/G/^F/G/!ped-up! | %113
!p!!ped![I:staff +1] !courtesy!=E,/A,/C/E/[I:staff -1] F/E/C/E/!ped-up!!ped![I:staff +1] x4!ped-up!!ped! =C,/=G,/_B,/=C/[I:staff -1]=c/_B/E/B/!ped-up!!ped![I:staff +1] (6:4:6G,B,C =GCB,!ped-up! | %114
!ped! F,/B,/D/F/[I:staff -1] G/F/D/F/!ped-up!!ped![I:staff +1] x4!ped-up!!ped! =D,/A,/=C/=D/[I:staff -1]=d/=c/F/c/!ped-up!!ped![I:staff +1] (6:4:6A,CD ADC!ped-up! || %115
[K:Db]!ped!"_cresc." A,/D/F/A/[I:staff -1] B/A/F/A/!ped-up!!ped![I:staff +1] x4!ped-up!!ped! =E,/=B,/=D/=E/[I:staff -1]=e/=d/^G/d/!ped-up!!ped![I:staff +1] (6:4:6=B,DE[I:staff -1] =B[I:staff +1]ED!ped-up! | %116
!ped! _E,/_A,/_D/_G/[I:staff -1]_g/_d/A/d/!ped-up!!ped![I:staff +1] (6:4:6G,A,D GDA,!ped-up! | %117
!ped! _D,/A,/_C/F/[I:staff -1]e/_c/F/c/!ped-up!!ped![I:staff +1] (6:4:6F,CE AEC!ped-up! | %118
!mf!!ped! _G,,/G,/B,/D/!<(![I:staff -1]f/d/B/d/!ped-up!!ped![I:staff +1] (6:4:6F,B,D FDB,!ped-up!!ped! _E,,/B,,/D,/F,/[I:staff -1]b/f/d/f/!ped-up!!ped![I:staff +1] (6:4:6=G,DF!<)![I:staff -1] B[I:staff +1]FD!ped-up! || %119
[M:3/2]!ff!!ped! !>![A,,,A,,]3 !>![B,,,B,,]!ped-up!!ped! !>![G,,,G,,]3 !>![F,,,F,,]!ped-up!!8vb(!!ped! !>!_C,,,2-!8vb)!!8vb(! (3C,,,!8vb)!!8vb(!!>!D,,,!8vb)!!8vb(!!>!E,,,!ped-up!!8vb)! | %120
!ped! !>![A,,,A,,]3 !>!B,,!ped-up!!ped! !>!G,,3 !>!F,,!ped-up!!ped! !>!_C,,2- (3C,,!>!D,,!>!E,,!ped-up! | %121
!ped! [=E,,,=E,,]8- [E,,,E,,]2- [=E,=A,^C=E] z | [E,,,E,,]4- [E,,,E,,] z !fermata!z2 z4!ped-up! | %123
!ped! z4!ped!!ped-up! z2 =E,,4!ped-up!!ped! [=A,,,=A,,]2-!ped-up! | %124
!ped! [=A,,,=A,,]2 [!courtesy!_B,,,!courtesy!_B,,]2-!ped-up!!ped! [B,,,B,,]2 [_E,,,_E,,]2!ped-up!!ped! [_A,,,_A,,]4!ped-up! | %125
!ped! D,,4-!ped-up!!ped! D,,4-!ped-up!!ped! D,,2 x2!ped-up! | %126
!pp!!ped! (3z F,,D, (3A,__E,_C!ped-up!!ped! (3z _C,F, (3__B,F,__E!ped-up!!ped! (3z __B,,G, (3B,G,E!ped-up! | %127
!ped! (3z A,,E, (3G,E,D!ped-up!!ped! (3z A,,E, (3G,C[I:staff -1]E!ped-up!!ped![I:staff +1] z4!ped-up! | %128
!p!!ped!"_cresc." (3z C,=A, (3^DA,=E!ped-up!!ped! (3z C,_B, (3CB,E!ped-up!!ped! (3z C,=A, (3CA,E!ped-up! | %129
!ped! (3z =B,,^G, (3=B,G,^D!ped-up!!ped! !>!=E,,8-!ped-up! | %130
!ped! =E,,4!ped-up!!ped! [^G,,^G,]4!ped-up!!ped! [^C,G,=B,^E]4!ped-up! | %131
!ped! [_G,,G,]4!ped-up!!ped! [B,,,B,,]4!ped-up!!ped! [E,,E,]4!ped-up! | %132
!ped! z2 !>!F2 !>!C2 !>!B,2!ped-up!!ped![I:staff -1] A,3!ped-up![I:staff +1] A, | %133
!f! (3z!ped! =B,,[=E,^G,] (3=B,[E,G,]B,,!ped-up!!ped! (3z E,[G,B,] (3^F[G,B,]E,!ped-up!!ped!!>(! (3z ^F,[^B,^D][I:staff -1] (3^G[I:staff +1][B,D]F,!ped-up!!>)! | %134
!p!!ped!"_cresc." (3z !>!^E,[^G,^C] (3^G[G,C]E,!ped-up!!ped! (3z !>!=E,[=A,C] (3=G[A,C]E,!ped-up!!ped! (3z !>!^D,[^F,=B,] (3^F[F,B,]D,!ped-up! | %135
!p!!ped! (3z"_cresc." ^C,[=E,=A,] (3=E[E,A,]C,!ped-up!!ped! (3z =C,[=F,A,] (3_E[F,A,]C,!ped-up!!ped! (3z _C,[F,_A,] (3_D[F,A,]C,!ped-up! | %136
!mf!!ped! (3z B,,[F,A,] (3=D[F,A,]B,,!ped-up!!ped! (3z __B,,[E,G,]"_dim." (3_C[E,G,]B,,!ped-up!!ped! (3z!p! A,,[E,G,] (3E[E,G,]A,,!ped-up! | %137
!ped! (3D,,A,F, (3A,,B,F,!ped-up!!ped! (3z CF, (3A,,DF,!ped-up!!ped! (3z A,G, (3A,,A,G,!ped-up! | %138
!ped! (3D,,A,F, (3A,,B,F,!ped-up!!ped! (3D,_CF, (3A,,DF,!ped-up!!ped! (3z A,G, (3A,,A,G,!ped-up! | %139
!ped! (3D,,A,G, (3A,,A,_F,!ped-up!!ped! (3z A,G, (3A,,A,F,!ped-up!!ped! (3z A,G, (3A,,A,G,!ped-up! | %140
!ped! F,8!ped-up!!ped! F,4!ped-up! |!ped! !fermata![D,,A,,F,A,]8!ped-up! |] %142
V:4
 x4 | x12 | x12 | (3D,,A,,E, x2 (3D,,A,,D, x2 D,,2 x2 | x12 | x12 | x12 | x12 | x12 | x12 | %10
 (3D,,A,,E, x2 (3D,,A,,D, x2 D,,2 x2 | x12 | x12 | x12 | x12 | x12 | x12 | %17
 [A,,,A,,]8 [A,,,E,,A,,]4 |{/D,,-} D,,4 x4{/D,,-} D,,2 x2 ||[K:E][M:3/4] x6 | x6 | x6 | x6 | x6 | %24
 x6 | x6 | x6 | x6 | z [E,^^F,] z [G,,E,] z [A,,E,] | z [B,,A,] z [C,G,] z [E,A,] | x6 | x6 | %32
 x2 x [_A,,=F,] z [=G,,F,] | x6 | !>![G,,,G,,]6 | x6 | x6 | G,,6 | =G,,6 | =G,,6 | G,,6 | =G,,6- | %42
 G,,=F,,=C,_B,,A,,=G,, | ^E,,4 B,,2- | B,,2 =C,4 | _B,,=D,=C,A,,B,,=G,, | ^E,,4 B,,2 | =C,6 | %48
 =B,,4 _E,,2 | ^C,,4 ^B,,2 | =B,,4 _E,,2 | ^C,,4 ^B,,2 | ^C,4 =F,,2 | _E,,4 =D,2 | _G,,4 =F,2 | %55
 =A,,4 ^G,2 | =C,4 B,2 ||[M:3/2] x12 ||[K:Db] x12 | [A,,,A,,]8 [B,,,F,,B,,]4 | %60
 [C,,C,]4 x4 [=D,=E,]4 | [=A,,,=A,,]4 [=G,,,=G,,]4 [_A,,,_A,,]4 | D,,8{/D,,-} D,,2 x2 || %63
[M:4/2][K:treble] x16 | x8 | x8 ||[K:A] x16 | x16 |[K:bass] x4[K:treble] x4 | x8 | x16 | x16 | %72
 x4[K:treble] x4 | x4[K:bass] x4 | x16 | x16 | x8 | x8 | x4[K:treble] x12 | x16 | x8 | %81
 x4[K:bass] x4 | x16 | %83
 x4[K:treble] x2!8va(! x2!8va)! x2!8va(! x2!8va)![K:bass] x/[K:treble] x2!8va(! x3/2!8va)! | %84
[K:treble] x8[K:bass] x8 ||[K:E] G,,8 =G,,8 | x4[K:treble] x12 |[K:bass] ^G,,8 =G,,8 | x16 || %89
[M:3/4] ^E,,4 B,,2- | B,,2 =C,4 ||[M:3/2] x4!8va(! x4!8va)! x4 | x12 ||[M:3/4] ^E,,4 B,,2 | =C,6 | %95
 B,,4 _E,,2 | ^C,,4 ^B,,2 | E,,4 D,2 | ^C,4 =F,,2 | _E,,4 =D,2 | _G,,4 =F,2 | ^D,4 =G,,2 | %102
 =F,,4 E,2 | _A,,4 =G,2 | =B,,4 ^A,2 ||[M:4/2] x4[K:treble] x12 | x8 | x8 | x16 | %109
 x2!8va(! x2!8va)! x2!8va(! x2!8va)! x2!8va(! x/!8va)! x11/2 |[K:bass] x8 | x8 | x16 | %113
 E,4 !courtesy!^D,2 C,2 =C,4 x4 | F,4 ^E,2 D,2 =D,4 x4 ||[K:Db] x4 =G,2 F,2 =E,4 x4 | E,4 x4 | %117
 D,4 x4 | G,,4 x4 E,,4 x4 || %119
[M:3/2] x8!8vb(! x2!8vb)!!8vb(! x2/3!8vb)!!8vb(! x2/3!8vb)!!8vb(! x2/3!8vb)! | x12 | x12 | x12 | %123
 x12 | x12 | (3D,,A,,E, x2 (3D,,A,,D, x2 D,,2 x2 | x12 | x12 | x12 | x12 | x12 | x12 | %132
 [A,,,A,,]8 [B,,,F,,B,,]4 | x12 | x12 | x12 | x12 | x12 | x12 | x12 | %140
 (3z D,,A,, (3A,A,,D,, (3z D,,A,, (3A,A,,D,, (3z D,,A,, (3A,A,,D,, | x8 |] %142
V:5
 x4 | x12 | x12 | x12 | x12 | x12 | x12 | x12 | x12 | x12 | x12 | x12 | x12 | x12 | x12 | %15
 =b4 ^g4 [^G=B^dg]4 | __e'4 b4 =g4 | x6[K:bass] x6 |[K:treble] x20/3!8va(! x10/3!8va)! x2 || %19
[K:E][M:3/4] x6 | x6 | x6 | x6 | x6 | x6 | x6 | x6 | x6 | x6 | x6 | x6 | x6 | x6 | x6 | x6 | x6 | %36
 x6 | x6 | x6 | x6 | x6 | x6 | x6 | x6 | x6 | x6 | x6 | x6 | x6 | x6 | x6 | x6 | x6 | x6 | x6 | %55
 x6 | x6 ||[M:3/2] ^b4 g4 [G=Bdg]4 ||[K:Db] __e'4 b4 =g4 | x6[K:bass] x6 | x2[K:treble] x10 | %61
 x2!8va(! x9!8va)! x | [Gcea]8!8va(! x4!8va)! ||[M:4/2] x16 | x8 | x8 ||[K:A] x16 | x16 | x8 | x8 | %70
 x16 | x16 | x8 | x8 | x16 | x16 | x8 | x8 | x16 | x16 | x8 | x8 | x16 | x6!8va(! x10!8va)! | %84
 x16 ||[K:E] x16 | x12[K:bass] x4 |[K:treble] x16 | x10[K:bass] x6 ||[M:3/4][K:treble] x6 | x6 || %91
[M:3/2] x4!8va(! x4!8va)! x4 | x4[K:bass] x8 ||[M:3/4][K:treble] x6 | x6 | x6 | x6 | x6 | x6 | x6 | %100
 x6 | x6 | x6 | x6 | x6 ||[M:4/2] x16 | x8 | x8 | x16 |!8va(! x12!8va)! x4 | x8 | x8 | x16 | x16 | %114
 x16 ||[K:Db] x16 | x8 | x8 | x16 ||[M:3/2] x32/3[K:bass] x4/3 | %120
[K:treble] x9[K:bass] x[K:treble] x2 |[K:bass] x5[K:treble] x7 | x4!8va(! x!8va)! x7 | x12 | x12 | %125
 x12 | x12 | x12 | x12 | x12 | =b4 ^g4 [^G=B^dg]4 | __e'4 b4 =g4 | x6[K:bass] x6 | %133
[K:bass] x2[K:treble] x10 | x12 | x12 |!8va(! x12 | x2!8va)! x10 | x12 | x12 | x12 | x8 |] %142
V:6
 x4 | x12 | x12 | x12 | x12 | x12 | x12 | x12 | x12 | x12 | x12 | x12 | x12 | x12 | x12 | x12 | %16
 x12 | x8 x2 (3:2:4x x x/ !>!x/ | x4 x2 (3x2 x/ x/ x4 ||[K:E][M:3/4] x6 | x6 | x6 | x6 | x6 | x6 | %25
 x6 | x6 | x6 | x6 | x6 | x6 | x6 | x6 | x6 | x6 | x6 | x6 | x6 | x6 | x6 | x6 | x6 | x6 | x6 | %44
 x6 | x6 | x6 | x6 | x6 | x6 | x6 | x6 | x6 | x6 | x6 | x6 | x6 ||[M:3/2] x12 ||[K:Db] x12 | x12 | %60
 x12 | x8 (3:2:6z G,CA,CG, | x31/4 x/4 x4 ||[M:4/2][K:treble] x16 | x8 | x8 ||[K:A] x16 | x16 | %68
[K:bass] x4[K:treble] x4 | x8 | x16 | x16 | x4[K:treble] x4 | x4[K:bass] x4 | x16 | x16 | x8 | x8 | %78
 x4[K:treble] x12 | x16 | x8 | x4[K:bass] x4 | x16 | %83
 x4[K:treble] x2!8va(! x2!8va)! x2!8va(! x2!8va)![K:bass] x/[K:treble] x2!8va(! x3/2!8va)! | %84
[K:treble] x8[K:bass] x8 ||[K:E] x16 | x4[K:treble] x12 |[K:bass] x16 | x16 ||[M:3/4] x6 | x6 || %91
[M:3/2] x4!8va(! x4!8va)! x4 | x12 ||[M:3/4] x6 | x6 | x6 | x6 | x6 | x6 | x6 | x6 | x6 | x6 | x6 | %104
 x6 ||[M:4/2] x4[K:treble] x12 | x8 | x8 | x16 | %109
 x2!8va(! x2!8va)! x2!8va(! x2!8va)! x2!8va(! x/!8va)! x11/2 |[K:bass] x8 | x8 | x16 | x16 | x16 || %115
[K:Db] x16 | x8 | x8 | x16 || %119
[M:3/2] x8!8vb(! x2!8vb)!!8vb(! x2/3!8vb)!!8vb(! x2/3!8vb)!!8vb(! x2/3!8vb)! | x12 | x12 | x12 | %123
 x12 | x12 | x12 | x12 | x12 | x12 | x12 | x12 | x12 | x12 | x12 | x12 | x12 | x12 | x12 | x12 | %139
 x12 | !arpeggio!x8 !arpeggio!x4 | x8 |] %142

